assets/regular/image.svg

<svg id="Flat" xmlns="http://www.w3.org/2000/svg" viewBox="0 0 256 256">
  <path d="M231.99951,183.99451V56.00012a16.01833,16.01833,0,0,0-16-16h-176a16.01834,16.01834,0,0,0-16,16V199.99963a16.01833,16.01833,0,0,0,16,16h176a16.01833,16.01833,0,0,0,16-16V183.99451Zm-16-127.99439.0083,108.6933L187.314,136.00012a16.019,16.019,0,0,0-22.62792,0l-20.68555,20.68652L99.314,112.00012a16.019,16.019,0,0,0-22.62792,0L39.99951,148.68561V56.00012Zm0,143.99951h-176V171.31409l48-48.00049,44.68653,44.687a16.0024,16.0024,0,0,0,22.62792,0l20.68555-20.687,40.00977,40.01025.001,12.67578ZM147.51416,108.485a12.00018,12.00018,0,1,1,20.48633-8.48486v.00342a12.00044,12.00044,0,0,1-20.48633,8.48144Z"/>
</svg>

<svg xmlns="http://www.w3.org/2000/svg" viewBox="0 0 256 256"><path d="M232,184V56a16,16,0,0,0-16-16H40A16,16,0,0,0,24,56V168h0v32a16,16,0,0,0,16,16H216a16,16,0,0,0,16-16V184ZM216,56V164.7L187.3,136a16.1,16.1,0,0,0-22.6,0L144,156.7,99.3,112a16.1,16.1,0,0,0-22.6,0L40,148.7V56Zm0,144H40V171.3l48-48L132.7,168a15.9,15.9,0,0,0,22.6,0L176,147.3l40,40V200Zm-68.5-91.5A11.9,11.9,0,0,1,144,100a12,12,0,0,1,24,0h0a12,12,0,0,1-12,12A12.3,12.3,0,0,1,147.5,108.5Z"/></svg>
